src/features/LeaveFeedbackButton/img/bird-zamanuha.svg

<svg width="32" height="49" viewBox="0 0 32 49" fill="none" xmlns="http://www.w3.org/2000/svg">
<rect width="32" height="32" rx="5" fill="black" fill-opacity="0.74"/>
<path d="M8.00284 14.1818V20H6.77273V15.3494H6.73864L5.40625 16.1847V15.0938L6.84659 14.1818H8.00284ZM11.5362 20.0795C11.112 20.0795 10.7341 20.0066 10.4027 19.8608C10.0732 19.7131 9.81274 19.5104 9.62145 19.2528C9.43205 18.9934 9.33452 18.6941 9.32884 18.3551H10.5675C10.575 18.4972 10.6214 18.6222 10.7067 18.7301C10.7938 18.8362 10.9093 18.9186 11.0533 18.9773C11.1972 19.036 11.3591 19.0653 11.5391 19.0653C11.7266 19.0653 11.8923 19.0322 12.0362 18.9659C12.1802 18.8996 12.2929 18.8078 12.3743 18.6903C12.4557 18.5729 12.4964 18.4375 12.4964 18.2841C12.4964 18.1288 12.4529 17.9915 12.3658 17.8722C12.2805 17.7509 12.1574 17.6562 11.9964 17.5881C11.8374 17.5199 11.648 17.4858 11.4283 17.4858H10.8857V16.5824H11.4283C11.6139 16.5824 11.7777 16.5502 11.9197 16.4858C12.0637 16.4214 12.1754 16.3324 12.255 16.2188C12.3345 16.1032 12.3743 15.9688 12.3743 15.8153C12.3743 15.6695 12.3393 15.5417 12.2692 15.4318C12.201 15.3201 12.1044 15.233 11.9794 15.1705C11.8563 15.108 11.7124 15.0767 11.5476 15.0767C11.3809 15.0767 11.2285 15.107 11.0902 15.1676C10.9519 15.2263 10.8411 15.3106 10.7578 15.4205C10.6745 15.5303 10.63 15.6591 10.6243 15.8068H9.44531C9.45099 15.4716 9.54664 15.1761 9.73224 14.9205C9.91785 14.6648 10.1679 14.465 10.4822 14.321C10.7985 14.1752 11.1555 14.1023 11.5533 14.1023C11.9548 14.1023 12.3061 14.1752 12.6072 14.321C12.9084 14.4669 13.1423 14.6638 13.3089 14.9119C13.4775 15.1581 13.5608 15.4347 13.5589 15.7415C13.5608 16.0672 13.4595 16.339 13.255 16.5568C13.0523 16.7746 12.7881 16.9129 12.4624 16.9716V17.017C12.8904 17.072 13.2161 17.2206 13.4396 17.4631C13.665 17.7036 13.7768 18.0047 13.7749 18.3665C13.7768 18.6979 13.6811 18.9924 13.4879 19.25C13.2966 19.5076 13.0324 19.7102 12.6953 19.858C12.3582 20.0057 11.9718 20.0795 11.5362 20.0795ZM15.3778 19.3239C15.1903 19.3239 15.0294 19.2576 14.8949 19.125C14.7623 18.9924 14.696 18.8314 14.696 18.642C14.696 18.4564 14.7623 18.2973 14.8949 18.1648C15.0294 18.0322 15.1903 17.9659 15.3778 17.9659C15.5597 17.9659 15.7188 18.0322 15.8551 18.1648C15.9915 18.2973 16.0597 18.4564 16.0597 18.642C16.0597 18.767 16.0275 18.8816 15.9631 18.9858C15.9006 19.0881 15.8182 19.1705 15.7159 19.233C15.6136 19.2936 15.5009 19.3239 15.3778 19.3239ZM15.3778 16.4688C15.1903 16.4688 15.0294 16.4025 14.8949 16.2699C14.7623 16.1373 14.696 15.9763 14.696 15.7869C14.696 15.6013 14.7623 15.4432 14.8949 15.3125C15.0294 15.1799 15.1903 15.1136 15.3778 15.1136C15.5597 15.1136 15.7188 15.1799 15.8551 15.3125C15.9915 15.4432 16.0597 15.6013 16.0597 15.7869C16.0597 15.9138 16.0275 16.0294 15.9631 16.1335C15.9006 16.2358 15.8182 16.3172 15.7159 16.3778C15.6136 16.4384 15.5009 16.4688 15.3778 16.4688ZM19.1669 20.0795C18.7654 20.0795 18.4074 20.0057 18.093 19.858C17.7805 19.7102 17.5324 19.5066 17.3487 19.2472C17.165 18.9877 17.0694 18.6903 17.0618 18.3551H18.255C18.2682 18.5805 18.3629 18.7633 18.5391 18.9034C18.7152 19.0436 18.9245 19.1136 19.1669 19.1136C19.3601 19.1136 19.5305 19.071 19.6783 18.9858C19.8279 18.8987 19.9444 18.7784 20.0277 18.625C20.1129 18.4697 20.1555 18.2917 20.1555 18.0909C20.1555 17.8864 20.112 17.7064 20.0249 17.5511C19.9396 17.3958 19.8213 17.2746 19.6697 17.1875C19.5182 17.1004 19.3449 17.0559 19.1499 17.054C18.9794 17.054 18.8137 17.089 18.6527 17.1591C18.4936 17.2292 18.3696 17.3248 18.2805 17.446L17.1868 17.25L17.4624 14.1818H21.0192V15.1875H18.4766L18.326 16.6449H18.3601C18.4624 16.5009 18.6167 16.3816 18.8232 16.2869C19.0296 16.1922 19.2607 16.1449 19.5163 16.1449C19.8667 16.1449 20.1792 16.2273 20.4538 16.392C20.7285 16.5568 20.9453 16.7831 21.1044 17.071C21.2635 17.357 21.3421 17.6866 21.3402 18.0597C21.3421 18.4517 21.2512 18.8002 21.0675 19.1051C20.8857 19.4081 20.6309 19.6468 20.3033 19.821C19.9775 19.9934 19.5987 20.0795 19.1669 20.0795ZM24.3686 20.0795C23.9311 20.0795 23.5419 20.0085 23.201 19.8665C22.862 19.7225 22.5959 19.5265 22.4027 19.2784C22.2095 19.0303 22.1129 18.7491 22.1129 18.4347C22.1129 18.1922 22.1679 17.9697 22.2777 17.767C22.3894 17.5625 22.541 17.393 22.7322 17.2585C22.9235 17.1222 23.1375 17.035 23.3743 16.9972V16.9574C23.0637 16.8949 22.8118 16.7443 22.6186 16.5057C22.4254 16.2652 22.3288 15.9858 22.3288 15.6676C22.3288 15.3665 22.4169 15.0985 22.593 14.8636C22.7692 14.6269 23.0107 14.4413 23.3175 14.3068C23.6262 14.1705 23.9766 14.1023 24.3686 14.1023C24.7607 14.1023 25.1101 14.1705 25.4169 14.3068C25.7256 14.4432 25.968 14.6297 26.1442 14.8665C26.3203 15.1013 26.4093 15.3684 26.4112 15.6676C26.4093 15.9877 26.3108 16.267 26.1158 16.5057C25.9207 16.7443 25.6707 16.8949 25.3658 16.9574V16.9972C25.5987 17.035 25.8099 17.1222 25.9993 17.2585C26.1906 17.393 26.3421 17.5625 26.4538 17.767C26.5675 17.9697 26.6252 18.1922 26.6271 18.4347C26.6252 18.7491 26.5277 19.0303 26.3345 19.2784C26.1413 19.5265 25.8743 19.7225 25.5334 19.8665C25.1944 20.0085 24.8061 20.0795 24.3686 20.0795ZM24.3686 19.1761C24.5637 19.1761 24.7341 19.1411 24.88 19.071C25.0258 18.9991 25.1394 18.9006 25.2209 18.7756C25.3042 18.6487 25.3459 18.5028 25.3459 18.3381C25.3459 18.1695 25.3033 18.0208 25.218 17.892C25.1328 17.7614 25.0173 17.6591 24.8714 17.5852C24.7256 17.5095 24.558 17.4716 24.3686 17.4716C24.1811 17.4716 24.0135 17.5095 23.8658 17.5852C23.718 17.6591 23.6016 17.7614 23.5163 17.892C23.433 18.0208 23.3913 18.1695 23.3913 18.3381C23.3913 18.5028 23.4321 18.6487 23.5135 18.7756C23.5949 18.9006 23.7095 18.9991 23.8572 19.071C24.005 19.1411 24.1754 19.1761 24.3686 19.1761ZM24.3686 16.5767C24.5315 16.5767 24.6764 16.5436 24.8033 16.4773C24.9302 16.411 25.0296 16.3191 25.1016 16.2017C25.1735 16.0843 25.2095 15.9489 25.2095 15.7955C25.2095 15.6439 25.1735 15.5114 25.1016 15.3977C25.0296 15.2822 24.9311 15.1922 24.8061 15.1278C24.6811 15.0616 24.5353 15.0284 24.3686 15.0284C24.2038 15.0284 24.058 15.0616 23.9311 15.1278C23.8042 15.1922 23.7048 15.2822 23.6328 15.3977C23.5627 15.5114 23.5277 15.6439 23.5277 15.7955C23.5277 15.9489 23.5637 16.0843 23.6357 16.2017C23.7076 16.3191 23.8071 16.411 23.9339 16.4773C24.0608 16.5436 24.2057 16.5767 24.3686 16.5767Z" fill="white"/>
<path d="M3 2.84211C3 2.37702 3.37702 2 3.84211 2H27.4211C27.8861 2 28.2632 2.37702 28.2632 2.84211C28.2632 3.30719 27.8861 3.68421 27.4211 3.68421H3.8421C3.37702 3.68421 3 3.30719 3 2.84211Z" fill="white" fill-opacity="0.14"/>
<path d="M23.9999 32V38V43.5M23.9999 43.5C21.4999 44 21.4999 44.5 19.9999 45C19.1513 45.2828 21.2712 44.0457 23.9999 43.5ZM23.9999 43.5C21.9999 45 21.8627 48.0488 21.9999 47.5C22.4999 45.5 22.4999 45.5 23.9999 43.5ZM23.9999 43.5C25.8442 44.8936 25.2093 44.7094 25.9999 45.5C26.4999 46 25.9782 45 23.9999 43.5ZM9 32V40.5L8.50024 43.5M8.50024 43.5C5.66691 43.6667 4.00033 43.9997 2.50038 44.5C2 44.6669 3.49956 43.7942 8.50024 43.5ZM8.50024 43.5C6.00024 44.5 3.43442 48 4.0001 48C4.5001 48 4.5001 46 8.50024 43.5ZM8.50024 43.5C10.5002 45 10.5 46.5 10.5 47C10.5 47.5 11.5001 46 8.50024 43.5Z" stroke="black"/>
</svg>

<svg xmlns="http://www.w3.org/2000/svg" width="32" height="49" fill="none"><rect width="32" height="32" fill="#000" fill-opacity=".74" rx="5"/><path fill="#fff" d="M8 14.18V20H6.77v-4.65h-.03l-1.33.83V15.1l1.44-.9H8Zm3.54 5.9c-.43 0-.8-.07-1.14-.22a1.93 1.93 0 0 1-.78-.6 1.53 1.53 0 0 1-.3-.9h1.25c0 .14.05.26.14.37.08.1.2.19.34.25.15.06.3.09.49.09s.35-.04.5-.1a.81.81 0 0 0 .33-.28.7.7 0 0 0 .13-.4c0-.16-.05-.3-.13-.42a.83.83 0 0 0-.37-.28c-.16-.07-.35-.1-.57-.1h-.54v-.9h.54c.18 0 .35-.04.49-.1a.8.8 0 0 0 .34-.27.7.7 0 0 0 .11-.4.7.7 0 0 0-.4-.65 1.13 1.13 0 0 0-.89 0 .8.8 0 0 0-.32.25.67.67 0 0 0-.14.39H9.45c0-.34.1-.63.28-.89.19-.26.44-.46.75-.6.32-.14.68-.22 1.07-.22.4 0 .76.08 1.06.22.3.15.53.34.7.6.17.24.25.51.25.82 0 .33-.1.6-.3.82-.2.21-.47.35-.8.41v.05c.43.05.76.2.98.44.22.24.34.54.33.9 0 .34-.09.63-.28.89-.2.26-.46.46-.8.6-.33.16-.72.23-1.15.23Zm3.84-.76a.66.66 0 0 1-.49-.2.66.66 0 0 1-.2-.48c0-.18.07-.34.2-.48.14-.13.3-.2.49-.2.18 0 .34.07.48.2.13.14.2.3.2.48 0 .13-.03.24-.1.35a.73.73 0 0 1-.24.24c-.1.06-.22.1-.34.1Zm0-2.85a.66.66 0 0 1-.49-.2.66.66 0 0 1-.2-.48c0-.19.07-.35.2-.48.14-.13.3-.2.49-.2.18 0 .34.07.48.2.13.13.2.3.2.48 0 .12-.03.24-.1.34a.7.7 0 0 1-.24.25c-.1.06-.22.09-.34.09Zm3.79 3.61c-.4 0-.76-.07-1.08-.22a1.87 1.87 0 0 1-.74-.61 1.57 1.57 0 0 1-.29-.9h1.2c0 .23.1.41.28.55.18.14.38.21.63.21a1 1 0 0 0 .5-.12c.16-.1.27-.21.36-.36.08-.16.13-.34.13-.54s-.05-.38-.14-.54a.92.92 0 0 0-.35-.36 1.05 1.05 0 0 0-.52-.14c-.17 0-.34.04-.5.1a.9.9 0 0 0-.37.3l-1.1-.2.28-3.07h3.56v1h-2.54l-.15 1.46h.03c.1-.14.26-.26.46-.35a1.79 1.79 0 0 1 2.28.78c.16.29.24.62.24.99a1.92 1.92 0 0 1-1.04 1.76c-.32.17-.7.26-1.13.26Zm5.2 0c-.44 0-.83-.07-1.17-.21-.34-.15-.6-.34-.8-.6-.2-.24-.29-.52-.29-.84 0-.24.06-.46.17-.66a1.5 1.5 0 0 1 1.1-.77v-.04a1.3 1.3 0 0 1-1.05-1.29c0-.3.09-.57.26-.8.18-.24.42-.43.73-.56.3-.14.66-.2 1.05-.2.4 0 .74.06 1.05.2.3.13.55.32.72.56.18.23.27.5.27.8a1.3 1.3 0 0 1-1.04 1.29V17c.23.04.44.12.63.26a1.48 1.48 0 0 1 .63 1.17c0 .32-.1.6-.3.85-.19.25-.46.44-.8.59a3 3 0 0 1-1.16.2Zm0-.9c.2 0 .36-.04.51-.1a.84.84 0 0 0 .34-.3.78.78 0 0 0 .13-.44.79.79 0 0 0-.13-.45.88.88 0 0 0-.35-.3 1.08 1.08 0 0 0-.5-.12c-.19 0-.36.04-.5.12a.88.88 0 0 0-.35.3.8.8 0 0 0-.13.45c0 .16.04.3.12.44.08.12.2.22.35.3.14.06.32.1.5.1Zm0-2.6c.16 0 .3-.04.43-.1a.75.75 0 0 0 .4-.68.73.73 0 0 0-.4-.67.92.92 0 0 0-.43-.1.93.93 0 0 0-.44.1.74.74 0 0 0-.3.27.74.74 0 0 0-.1.4c0 .15.03.28.1.4.08.12.18.21.3.28.13.06.28.1.44.1Z"/><path fill="#fff" fill-opacity=".14" d="M3 2.84c0-.46.38-.84.84-.84h23.58a.84.84 0 0 1 0 1.68H3.84A.84.84 0 0 1 3 2.84Z"/><path stroke="#000" d="M24 32v11.5m0 0c-2.5.5-2.5 1-4 1.5-.85.28 1.27-.95 4-1.5Zm0 0c-2 1.5-2.14 4.55-2 4 .5-2 .5-2 2-4Zm0 0c1.84 1.4 1.2 1.2 2 2 .5.5-.02-.5-2-2ZM9 32v8.5l-.5 3m0 0c-2.83.17-4.5.5-6 1-.5.17 1-.7 6-1Zm0 0C6 44.5 3.43 48 4 48c.5 0 .5-2 4.5-4.5Zm0 0c2 1.5 2 3 2 3.5s1-1-2-3.5Z"/></svg>
